!!!OTL: Nao yuanxiao
!!!ARE: Asia, China,ÿJiangsu, ? ning
!! III, 501
!!!SCT: C1586
!!!YEM: Copyright 1995, estate of Helmut Schaffrath.
**kern
*ICvox
*Ivox
!! Mixed meters:  2/4; 3/4
*M3/4
*k[f#]
*G:
{8dd
16ee
16gg
4dd
=1
8ee
16b
16dd
4a
=2
8.dd
16gg
8ee
8dd
=3
8ee
16b
16dd
4a}
=4
{8.dd
16dd
8cc#
8dd
=5
8.ee
16dd
8cc#
8dd
=6
8.ee
16cc#
[4dd
=7
4.dd]
8b}
=8
{8dd
16ee
16gg
16ee
16dd
8b
=9
8a
8a
8r
16b
16a
=10
8g
4g
8e
=11
8.dd
16ee
8dd
8b
=12
4a
8g
16e
16g
=13
2a}
=14
{8.b
16b
8b
8b
=15
8b
8dd
8a
8a
=16
8g
16g
16e
8d
8d}
=17
{8.g
16g
8g
8b
8r
8a
=18
*M2/4
8.a
16a
8a
8a
=19
8a
4f#
8d
=20
8.e}
{16a
8f#
8e
=21
8d
16r
16e
8d
16r
16e
=22
8d
16r
16e
8d
16r
16e
=23
2d}
==
!!!AGN: Wuge, Lianhualao
!!!AMT: irregular
!!!AIN: vox
!!!EED: Helmut Schaffrath
!!!EEV: 1.0
*-
!!!ONB: Tied note syntax fixed by Craig Sapp, 2004/05/03/
